Costumes/u-block.svg

<?xml version="1.0" encoding="UTF-8" standalone="no"?>
<svg
   version="1.1"
   width="58.02129"
   height="79.253059"
   id="svg5"
   sodipodi:docname="u-block.svg"
   xmlns:inkscape="http://www.inkscape.org/namespaces/inkscape"
   xmlns:sodipodi="http://sodipodi.sourceforge.net/DTD/sodipodi-0.dtd"
   xmlns="http://www.w3.org/2000/svg"
   xmlns:svg="http://www.w3.org/2000/svg">
  <defs
     id="defs9" />
  <sodipodi:namedview
     id="namedview7"
     pagecolor="#ffffff"
     bordercolor="#000000"
     borderopacity="0.25"
     inkscape:showpageshadow="2"
     inkscape:pageopacity="0.0"
     inkscape:pagecheckerboard="0"
     inkscape:deskcolor="#d1d1d1" />
  <!-- Exported by Scratch - http://scratch.mit.edu/ -->
  <g
     id="ID0.6532850251533091"
     transform="translate(-0.82904719,-0.76749968)">
    <path
       id="ID0.07966083101928234"
       fill="#ff9400"
       d="m 299,360 c 3.115,16.867 -3.844,67 22,49 0.523,-19.553 -2.205,-32.553 -1,-49 4.252,-2.552 7.935,1.386 10,0 2.994,24.362 6.525,59.887 -15,66 -12.675,-0.658 -17.248,-9.419 -24,-16 -0.733,-13.847 -4.46,-32.515 -2,-51 4.368,-0.701 5.632,1.701 10,1 z"
       transform="matrix(0.96941894,0,0,0.96941894,-267.7,-341.7)" />
    <path
       id="ID0.3616142049431801"
       d="m 323.9,354.75 c 3.702,-0.392 10.143,-3.269 11.1,0.25 3.503,13.536 1.173,28.063 0,42 -0.601,7.137 -2.195,14.571 -5.5,21 -3.184,6.19 -6.872,13.198 -13.2,15.9 -5.805,2.477 -13.315,0.478 -19.15,-2.3 -6.495,-3.125 -13.442,-7.771 -16.15,-14.6 -4.565,-11.521 -0.464,-21.65 -4,-37 0,-5.667 0,-11.333 0,-17 2.333,0 4.667,0 7,0 2.252,-0.998 -2.162,-5.452 1,-7 5.68,0.653 14.315,-2.079 18,1 2.945,15.066 2.413,46.743 8,51 1.509,-6.002 -0.447,-32.261 -2,-46 1.853,-0.953 4.667,0 7,0 0.547,-1.453 -0.27,-3.876 1,-5 1.82,-1.611 4.527,-1.967 6.9,-2.25 z M 289,359 c -2.46,18.485 1.267,37.153 2,51 6.752,6.581 11.325,15.342 24,16 21.525,-6.113 17.994,-41.638 15,-66 -2.065,1.386 -5.748,-2.552 -10,0 -1.205,16.447 1.523,29.447 1,49 -25.844,18 -18.885,-32.133 -22,-49 -4.368,0.701 -5.632,-1.701 -10,-1 z"
       transform="matrix(0.96941894,0,0,0.96941894,-267.7,-341.7)" />
  </g>
</svg>

<svg version="1.1" width="59" height="80" xmlns="http://www.w3.org/2000/svg" xmlns:xlink="http://www.w3.org/1999/xlink">
  <!-- Exported by Scratch - http://scratch.mit.edu/ -->
  <g id="ID0.6532850251533091">
    <path id="ID0.07966083101928234" fill="#FF9400" d="M 299 360 C 302.115 376.867 295.156 427 321 409 C 321.523 389.447 318.795 376.447 320 360 C 324.252 357.448 327.935 361.386 330 360 C 332.994 384.362 336.525 419.887 315 426 C 302.325 425.342 297.752 416.581 291 410 C 290.267 396.153 286.540 377.485 289 359 C 293.368 358.299 294.632 360.701 299 360 Z " transform="matrix(0.9694189429283142, 0, 0, 0.9694189429283142, -267.7, -341.7)"/>
    <path id="ID0.3616142049431801" d="M 323.900 354.750 C 327.602 354.358 334.043 351.481 335 355 C 338.503 368.536 336.173 383.063 335 397 C 334.399 404.137 332.805 411.571 329.500 418 C 326.316 424.190 322.628 431.198 316.300 433.900 C 310.495 436.377 302.985 434.378 297.150 431.600 C 290.655 428.475 283.708 423.829 281 417 C 276.435 405.479 280.536 395.350 277 380 C 277 374.333 277 368.667 277 363 C 279.333 363 281.667 363 284 363 C 286.252 362.002 281.838 357.548 285 356 C 290.680 356.653 299.315 353.921 303 357 C 305.945 372.066 305.413 403.743 311 408 C 312.509 401.998 310.553 375.739 309 362 C 310.853 361.047 313.667 362 316 362 C 316.547 360.547 315.730 358.124 317 357 C 318.820 355.389 321.527 355.033 323.900 354.750 Z M 289 359 C 286.540 377.485 290.267 396.153 291 410 C 297.752 416.581 302.325 425.342 315 426 C 336.525 419.887 332.994 384.362 330 360 C 327.935 361.386 324.252 357.448 320 360 C 318.795 376.447 321.523 389.447 321 409 C 295.156 427 302.115 376.867 299 360 C 294.632 360.701 293.368 358.299 289 359 Z " transform="matrix(0.9694189429283142, 0, 0, 0.9694189429283142, -267.7, -341.7)"/>
  </g>
</svg>
